src/assets/icons/mail.svg

<svg width="18" height="17" viewBox="0 0 18 17" fill="none" xmlns="http://www.w3.org/2000/svg">
<path d="M4.37923 7.9218L8.98008 10.4416C9.13344 10.5424 9.33792 10.5424 9.49128 10.4416L14.0921 7.9218C14.7056 7.61942 14.1944 6.71229 13.5809 7.06506L9.23568 9.43368L4.89044 7.01467C4.27699 6.71229 3.81691 7.56902 4.37923 7.9218Z" fill="white" stroke="white"/>
<path d="M2.89121 15.9H15.4993C16.5709 15.9 17.3905 15.0921 17.3905 14.0356V6.08061C17.3905 5.39698 17.0122 4.71335 16.3188 4.40261L9.44739 1.04661C9.25827 0.984463 9.06915 0.984463 8.88003 1.04661L2.07168 4.46475C1.37824 4.7755 1 5.39698 1 6.08061V14.0356C1 15.0921 1.81952 15.9 2.89121 15.9ZM2.2608 6.08061C2.2608 5.83201 2.38689 5.64557 2.63905 5.52127L9.19523 2.28957L15.7514 5.52127C16.0036 5.64557 16.1297 5.89416 16.1297 6.08061V14.0356C16.1297 14.4084 15.8775 14.657 15.4993 14.657H2.89121C2.51297 14.657 2.2608 14.4084 2.2608 14.0356V6.08061Z" fill="white" stroke="white" stroke-width="0.5"/>
</svg>

<svg xmlns="http://www.w3.org/2000/svg" fill="none" width="18" height="17" viewBox="0 0 18 17"><defs/><path fill="currentColor" stroke="currentColor" d="M4.38 7.922l4.6 2.52c.153.1.358.1.511 0l4.601-2.52c.614-.303.102-1.21-.511-.857L9.236 9.434 4.89 7.014c-.613-.302-1.073.555-.51.908z"/><path fill="currentColor" stroke="currentColor" stroke-width=".5" d="M2.891 15.9H15.5c1.072 0 1.891-.808 1.891-1.864V6.08a1.83 1.83 0 00-1.071-1.678L9.447 1.047a.887.887 0 00-.567 0L2.072 4.465C1.378 4.775 1 5.397 1 6.08v7.955c0 1.056.82 1.864 1.891 1.864zm-.63-9.82c0-.248.126-.434.378-.559L9.195 2.29l6.556 3.231c.253.125.379.373.379.56v7.955c0 .372-.252.621-.63.621H2.89c-.378 0-.63-.249-.63-.621V6.08z"/></svg>
